dist/svgs/devui-icons/op/go-cloudserver.svg

<?xml version="1.0" encoding="UTF-8"?>
<svg width="16px" height="16px" viewBox="0 0 16 16" version="1.1" xmlns="http://www.w3.org/2000/svg" xmlns:xlink="http://www.w3.org/1999/xlink">
    <title>操作/cloudserver</title>
    <desc>Created with Sketch.</desc>
    <g id="操作/cloudserver" stroke="none" stroke-width="1" fill="none" fill-rule="evenodd">
        <path d="M15,10.1707057 C14.9693067,10.1598572 14.9383842,10.149494 14.9072417,10.1396253 C14.6634881,9.0275924 13.9570886,8.08877462 13,7.53512878 L13,5 L3,5 L3,13 L4.03544443,13 C4.14684015,13.7787798 4.51460637,14.4748579 5.05050863,15 L2,15 C1.44771525,15 1,14.5522847 1,14 L1,2 C1,1.44771525 1.44771525,1 2,1 L14,1 C14.5522847,1 15,1.44771525 15,2 L15,10.1707057 L15,10.1707057 Z M3,3 L3,4 L6,4 L6,3 L3,3 Z M7,3 L7,4 L8,4 L8,3 L7,3 Z M14,15 L8,15 L8,14.9499909 C7.83844503,14.9827849 7.67123292,15 7.5,15 C6.11928813,15 5,13.8807119 5,12.5 C5,11.1192881 6.11928813,10 7.5,10 C7.72216622,10 7.93756391,10.0289796 8.14261914,10.0833648 C8.5299979,8.87483174 9.662835,8 11,8 C12.6568542,8 14,9.34314575 14,11 C15.1045695,11 16,11.8954305 16,13 C16,14.1045695 15.1045695,15 14,15 Z" id="Combined-Shape" fill="#293040"></path>
    </g>
</svg>

<svg xmlns="http://www.w3.org/2000/svg" viewBox="0 0 16 16"><path fill-rule="evenodd" d="M15 10.17a2.977 2.977 0 00-.093-.03A4.006 4.006 0 0013 7.535V5H3v8h1.035c.112.779.48 1.475 1.016 2H2a1 1 0 01-1-1V2a1 1 0 011-1h12a1 1 0 011 1v8.17zM3 3v1h3V3H3zm4 0v1h1V3H7zm7 12H8v-.05a2.5 2.5 0 11.143-4.867A3.001 3.001 0 0114 11a2 2 0 110 4z"/></svg>
